!!!SOCIAL_FUNCTION:	songs of the sun dance
!!!PDT:	1918

Specific Region: Dakotas, Minnesota, Montana, Nebraska
!!!REG: Dakotas and Montana
!!!LING_GROUP: Siouan
!!!LANG: Tone
!!!OTL@ENG: The Many Lands You Fear
!!!ONM: No. 8
**kern
*Imale
*clefF4
*M2/4
*MM104
8.e
16e
=1
4g
8.e
16e
=2
4g
8.e
16e
=3
8.e
16e
8.d
16e
=4||
*M3/4
(4c
8.A)
16c
8.c
16e
=5
4e
4e
8.e
16e
=6||
*M2/4
4c
8.A
16A
=7||
*M3/4
4G
8.E
16G
8.G
16c
=8||
*M2/4
2c
=9
8.A
16c
4A
=10
8.G
16G
4G
=11
8.E
16E
[4E
=12
4E_
8.E]
16E
=13
8.E
16G
4G
=14
8.E
16E
[4E
=15
4E]
4E
==
*-
!!!CNT: Native American -- Sioux
!!!MRD: 1911/07//-1914///
!!!OCL: Frances Densmore
!!!YOR1: Teton Sioux Music, Bulletin 61,
!!!YOR2: Bureau of American Ethnology, Smithsonian Institution
!!!PPR: Government Printing Office
!!!PPP: Washington, D.C.
!!!PDT: 1918///
!!!ENC: Craig Stuart Sapp
!!!END: 2002/03/25/
!!!EEV: 2002/03/31/
!!!AGN: Ceremonial Song/Song of the Sun Dance
!!!MPN@@SIO: Shiya'ka
!!!MPN@ENG: Teal Duck
!!!TXO: Teton Sioux
!!!MLC: Standing Rock Reservation, South Dakota, United States of America
!!!ARL: 45.9/-100.7#
!!!catalog: Catalogue No. 450
!!!PPG: 109
!!!EFL: 8/245
!!!VTS: 1285135970
